build/img/phone.svg

<svg width="15" height="15" viewBox="0 0 15 15" fill="none" xmlns="http://www.w3.org/2000/svg">
<path d="M0.725683 2.429L2.70176 0.454785C2.94297 0.213574 3.26582 0.078125 3.60723 0.078125C3.94863 0.078125 4.27148 0.211719 4.51269 0.454785L6.64092 2.5793C6.88213 2.82051 7.01758 3.14522 7.01758 3.48662C7.01758 3.82988 6.88398 4.15088 6.64092 4.39395L4.97842 6.0583C5.35715 6.94074 5.90132 7.7425 6.58154 8.42031C7.2625 9.10498 8.0585 9.64492 8.9417 10.0272L10.6042 8.36279C10.8454 8.12158 11.1683 7.98613 11.5097 7.98613C11.6781 7.98551 11.8449 8.0185 12.0004 8.08318C12.1559 8.14786 12.2969 8.24292 12.4151 8.36279L14.5452 10.4873C14.7864 10.7285 14.9219 11.0532 14.9219 11.3946C14.9219 11.7379 14.7883 12.0589 14.5452 12.302L12.571 14.2762C12.1591 14.6881 11.5913 14.9237 11.0087 14.9237C10.8881 14.9237 10.7712 14.9145 10.6524 14.894C8.1958 14.4896 5.75771 13.1814 3.78906 11.2147C1.82226 9.24414 0.516014 6.80606 0.107811 4.34756C-0.00908279 3.6499 0.224707 2.93184 0.725683 2.429ZM1.42334 4.12676C1.78516 6.31436 2.96152 8.49639 4.7335 10.2684C6.50547 12.0403 8.68564 13.2167 10.8732 13.5785C11.1479 13.6249 11.4299 13.5321 11.6303 13.3336L13.5692 11.3946L11.5134 9.33692L9.29053 11.5635L9.27383 11.5802L8.87305 11.4317C7.65785 10.985 6.55433 10.2793 5.63898 9.3636C4.72363 8.44793 4.01833 7.34416 3.57197 6.12881L3.42353 5.72803L5.66494 3.48848L3.60908 1.43076L1.67012 3.36973C1.46973 3.57012 1.37695 3.85215 1.42334 4.12676Z" fill="white"/>
</svg>

<svg width="15" height="15" fill="none" xmlns="http://www.w3.org/2000/svg"><path d="M.726 2.429L2.702.455a1.276 1.276 0 011.81 0l2.129 2.124a1.28 1.28 0 010 1.815L4.978 6.058A7.523 7.523 0 006.582 8.42a7.538 7.538 0 002.36 1.607l1.662-1.664a1.276 1.276 0 011.811 0l2.13 2.124a1.28 1.28 0 010 1.815l-1.974 1.974a2.222 2.222 0 01-1.919.618c-2.456-.404-4.894-1.713-6.863-3.68C1.822 9.245.516 6.807.108 4.349A2.212 2.212 0 01.726 2.43zm.697 1.698c.362 2.187 1.539 4.37 3.31 6.141 1.772 1.772 3.953 2.949 6.14 3.31a.873.873 0 00.757-.244l1.94-1.94-2.057-2.057-2.222 2.226-.017.017-.4-.148a8.929 8.929 0 01-5.302-5.303l-.148-.401 2.24-2.24L3.61 1.431 1.67 3.37a.87.87 0 00-.247.757z" fill="#fff"/></svg>
